X:1
T:Tarantella Capriciosa
D:Joel Perri / Tarantella del Diavolo
Z:MB, 001128
M:6/8
L:1/8
K:F
|: CDE FED | C2C c2c | B2B   BAG | A2 FC-C2 |
   CDE FED | C2C c2c | CD_E =EFG |1 A6 :|2 A4-AG ||
|: gag gfe | d2^c d2G | gag gfe |1 dc=B c2G :|2 dc=B c3 ||
